src/misc/icons/assets/BSX.svg

<svg fill="none" height="32" viewBox="0 0 32 32" width="32" xmlns="http://www.w3.org/2000/svg"><path d="m15.9991.00000003c3.1646-.00018147 6.2581.93806997 8.8894 2.69609997 2.6314 1.75803 4.6823 4.25688 5.8934 7.18054s1.528 6.14076.9107 9.24456-2.1412 5.9548-4.3789 8.1925-5.0887 3.7616-8.1925 4.3789-6.3209.3004-9.24456-.9107-5.42251-3.262-7.18054-5.8934c-1.75803-2.6313-2.69628144-5.7248-2.69609997-8.8894 0-2.1011.41383197-4.1815 1.21785997-6.1226.80403-1.9411 1.98251-3.70483 3.46816-5.19048s3.24938-2.66413 5.19048-3.46816c1.9411-.804032 4.0215-1.21785997 6.1226-1.21785997zm-5.2199 15.99909997c0 7.7321 5.2199 13.9997 5.2199 13.9997s5.2198-6.2676 5.2198-13.9997-5.2198-13.99887-5.2198-13.99887-5.2199 6.26769-5.2199 13.99887z" fill="#4fffb0"/></svg>

<svg
  width="32"
  height="32"
  viewBox="0 0 32 32"
  fill="none"
  xmlns="http://www.w3.org/2000/svg"
>
<path
    d="M15.9991 2.63192e-08C19.1637 -0.000181444 22.2572 0.93807 24.8885 2.6961C27.5199 4.45413 29.5708 6.95298 30.7819 9.87664C31.993 12.8003 32.3099 16.0174 31.6926 19.1212C31.0753 22.225 29.5514 25.076 27.3137 27.3137C25.076 29.5514 22.225 31.0753 19.1212 31.6926C16.0174 32.3099 12.8003 31.993 9.87664 30.7819C6.95298 29.5708 4.45413 27.5199 2.6961 24.8885C0.93807 22.2572 -0.000181444 19.1637 2.63192e-08 15.9991C2.63192e-08 13.898 0.413832 11.8176 1.21786 9.8765C2.02189 7.9354 3.20037 6.17167 4.68602 4.68602C6.17167 3.20037 7.9354 2.02189 9.8765 1.21786C11.8176 0.413828 13.898 2.63192e-08 15.9991 2.63192e-08ZM10.7792 15.9991C10.7792 23.7312 15.9991 29.9988 15.9991 29.9988C15.9991 29.9988 21.2189 23.7312 21.2189 15.9991C21.2189 8.267 15.9991 2.00023 15.9991 2.00023C15.9991 2.00023 10.7792 8.26792 10.7792 15.9991Z"
    fill="#4FFFB0"
  />
</svg>
